static/img/icons/lock.svg

<?xml version="1.0" encoding="UTF-8"?>
<svg width="21px" height="26px" viewBox="0 0 21 26" version="1.1" xmlns="http://www.w3.org/2000/svg" xmlns:xlink="http://www.w3.org/1999/xlink">
    <!-- Generator: Sketch 49.1 (51147) - http://www.bohemiancoding.com/sketch -->
    <title>Page 1</title>
    <desc>Created with Sketch.</desc>
    <defs>
        <polygon id="path-1" points="0 0.577645714 20.5227273 0.577645714 20.5227273 24.9942857 0 24.9942857"></polygon>
        <polygon id="path-3" points="0 25.3423543 20.5227273 25.3423543 20.5227273 0.925714286 0 0.925714286"></polygon>
    </defs>
    <g id="Page-1" stroke="none" stroke-width="1" fill="none" fill-rule="evenodd">
        <g id="Landing-page" transform="translate(-380.000000, -2487.000000)">
            <g id="membrana-platform-components" transform="translate(380.000000, 2014.000000)">
                <g id="for-investors">
                    <g id="text" transform="translate(0.000000, 153.000000)">
                        <g id="Page-1" transform="translate(0.000000, 320.000000)">
                            <g id="Group-3" transform="translate(0.000000, 0.348069)">
                                <mask id="mask-2" fill="white">
                                    <use xlink:href="#path-1"></use>
                                </mask>
                                <g id="Clip-2"></g>
                                <path d="M19.5681818,23.14332 C19.5681818,23.6533886 19.1395909,24.0690343 18.6136364,24.0690343 L1.90909091,24.0690343 C1.38313636,24.0690343 0.954545455,23.6533886 0.954545455,23.14332 L0.954545455,13.9185771 C0.954545455,13.4085086 1.38313636,12.9928629 1.90909091,12.9928629 L18.6136364,12.9928629 C19.1395909,12.9928629 19.5681818,13.4085086 19.5681818,13.9185771 L19.5681818,23.14332 Z M4.53122727,7.06088571 C4.53122727,3.99584571 7.10181818,1.50289714 10.2613636,1.50289714 C13.4209091,1.50289714 15.9915,3.99584571 15.9915,7.06088571 L15.9915,12.0671486 L4.53122727,12.0671486 L4.53122727,7.06088571 Z M18.6136364,12.0671486 L16.9460455,12.0671486 L16.9460455,7.06088571 C16.9460455,3.48670286 13.9468636,0.577182857 10.2613636,0.577182857 C6.57586364,0.577182857 3.57668182,3.48670286 3.57668182,7.06088571 L3.57668182,12.0671486 L1.90909091,12.0671486 C0.856227273,12.0671486 0,12.8993657 0,13.9185771 L0,23.14332 C0,24.1634571 0.856227273,24.9947486 1.90909091,24.9947486 L18.6136364,24.9947486 C19.6665,24.9947486 20.5227273,24.1634571 20.5227273,23.14332 L20.5227273,13.9185771 C20.5227273,12.8993657 19.6665,12.0671486 18.6136364,12.0671486 Z" id="Fill-1" fill="#6E7195" mask="url(#mask-2)"></path>
                            </g>
                            <mask id="mask-4" fill="white">
                                <use xlink:href="#path-3"></use>
                            </mask>
                            <g id="Clip-5"></g>
                            <polygon id="Fill-4" fill="#6E7195" mask="url(#mask-4)" points="9.78409091 20.9674286 10.7386364 20.9674286 10.7386364 16.7906057 9.78409091 16.7906057"></polygon>
                        </g>
                    </g>
                </g>
            </g>
        </g>
    </g>
</svg>

<svg width="21" height="26" xmlns="http://www.w3.org/2000/svg" xmlns:xlink="http://www.w3.org/1999/xlink"><defs><path id="a" d="M0 .578h20.523v24.416H0z"/><path id="c" d="M0 25.342h20.523V.926H0z"/></defs><g fill="none" fill-rule="evenodd"><g transform="translate(0 .348)"><mask id="b" fill="#fff"><use xlink:href="#a"/></mask><path d="M19.568 23.143c0 .51-.428.926-.954.926H1.909c-.526 0-.954-.416-.954-.926V13.92c0-.51.428-.926.954-.926h16.705c.526 0 .954.416.954.926v9.224zM4.531 7.061c0-3.065 2.57-5.558 5.73-5.558 3.16 0 5.73 2.493 5.73 5.558v5.006H4.531V7.061zm14.083 5.006h-1.668V7.061c0-3.574-3-6.484-6.685-6.484-3.685 0-6.684 2.91-6.684 6.484v5.006H1.909C.856 12.067 0 12.9 0 13.92v9.224c0 1.02.856 1.852 1.91 1.852h16.704c1.052 0 1.909-.832 1.909-1.852V13.92c0-1.02-.857-1.852-1.91-1.852z" fill="#6E7195" mask="url(#b)"/></g><mask id="d" fill="#fff"><use xlink:href="#c"/></mask><path fill="#6E7195" mask="url(#d)" d="M9.784 20.967h.955v-4.176h-.955z"/></g></svg>
